X:1
T:Allons gayement
T:Allons gayement
T:Jean de Castro
T:Source : Livre de chansons à 3 parties---Paris---A.le Roy & R.Ballard---1575. Editor : André Vierendeels (25/09/15).
T:Notes : Original clefs :G2, C2, C3 Editorial accidentals above the staff
C:Jean de Castro
%%score [ 1 2 3 ]
L:1/8
Q:1/4=90
M:2/2
K:F
V:1 treble nm="Superius" snm="S"
V:2 treble nm="Altus" snm="A"
V:3 treble-8 nm="Tenor" snm="T"
V:1
 d6 d2 | c4 A4 | B4 B2 G2 | A8 | z8 | d6 d2 | c4 d4 | B4 A2 A2 | B4 z4 | z4 A2 B2 | c4 A4 | %11
w: Al lons,|al- lons|gay, gay- e-|ment,||al- lons,|al- lons|gay, gay- e-|ment,|al- lons,|al- lons|
 G4 d2 e2 | f4 d4 | c4 z2 f2- | f2 e2 f4 | e2 e2 d4- | d4 ^c4 | d4 z2 A2- | A2 B2 c2 A2 | %19
w: gay, al- lons,|al- lons|gay, gay|_ e- ment|ma mi- gnon|_ _|ne, al-|* lons, al- lons|
 B2 d4 c2 | d2 B4 A2 | =B4 z2 d2 | d2 d2 d4- | d4 f4 | e4 d4- | d4 ^c4 |"^-natural" z2 d2 c2 B2 | %27
w: gay, gay- e-|ment, vous et|moy, mon|pe- re'a faict|_ fai-|re'un cha-|* teau,|d'or et d'ar-|
 A2 f2 e2 d2 | c4 B4 | A4 G4 | A2 A4 d2 | c4 A4 | B6 B2 | A8 | z8 | d6 d2 | c4 d4 | B4 A2 A2 | %38
w: gent, d'or et d'ar-|gent sont|les car-|reaux, al- lons,|al- lons|gay- e-|ment,||al- lons,|al- lons|gay, gay- e-|
 =B4 z4 | z4 A2 B2 | c4 A4 | G4 d2 e2 | f4 d4 | c4 z2 f2- | f2 e2 f4 | e2 e2 d4- | d4 ^c4 | %47
w: ment,|al- lons,|al- lons|gay, al- lons|gay- e-|ment, gay|_ e- ment,|ma- mi- gnon-||
 d4 z2 A2- | A2 B2 c2 A2 | B2 d4 c2 | d2 B4 A2 | B4 z4 | d4 c2 B2 | A4 d4 | d4 ^c4 | d4 z2 d2 | %56
w: ne, al-|* lons, al- lons|gay, gay- e-|ment, vous et|moy,|le roy n'en|a poinct|de si|beau, le|
 B2 G2 d4- | d4 f4 | e6 d2 | c4 d4- | d4 B4 | A4 d2 f2 | e4 f4- | f2 d2 ^c4 | d4 z2 A2- | %65
w: roy n'en a|_ poinct|de si|beau, de|_ si|beau, gay- e-|ment ma|_ mi- gnon-|ne, al-|
 A2 B2 c2 A2 | B2 d4 c2 | d2 B4 A2 | =B4 z2 d2- | d2 =B2 c2 d2 | d2 B2 A2 d2- | d2 d2 d4 | c4 A4 | %73
w: * lons, al- lons|gay, gay- e-|ment, vous et|moy, al-|* lons, al- lons|gay- e- ment, gay-|* e- ment,|vous et|
 !fermata!=B8 |] %74
w: moy.|
V:2
 z8 | z8 | G6 G2 | F4 D4 | E4 E2 F2 | G2 D4 D2 | E4 G4- | G2 G2 ^F4 | G4 F2 G2 | A4 F4 | E4 F2 F2 | %11
w: ||Al- lons,|al- lons|gay, gay- e-|ment, gay- e-|ment, ma|_ mi- gnon-|ne, al- lons,|al- lons|gay, gay- e-|
 D4 z2 G2 | A2 B4 G2 | A4 F2 F2 | G4 D2 D2 | G4 z2 G2- | G2 F2 E4 | F4 z2 F2- | F2 D2 E2 F2 | %19
w: ment, al-|lons, al- lons|gay, gay- e-|ment, gay- e-|ment, ma|_ mi- gnon-|ne, al-|* lons, al- lons|
 G4 B2 A2 | G4 G2 F2 | G2 G2 G2 G2 | G4 B4 | A4 F4 | G6 D2 | F4 E4 | D2 B2 A2 G2 | F4 G4 | %28
w: gay, gay- e-|ment, vous et|moy,- mon pe- re'a|faict fai-|re'un cha-|teau, fai-|re'un cha-|teau, d'or et d'ar-|gent sont|
 A4 D2 E2 | F2 D2 G4 | F2 F4 B2 | A4 ^F4 | G2 G4 G2 | ^F4 F2 F2 | G4 A4 |"^-natural" F4 G2 D2 | %36
w: les car- *||reaux, al- lons,|al- lons|gay, gay- e-|ment, al- lons,|al- lons|gay,- gay- e-|
 E4 G4- | G2 G2 ^F4 | G4 F2 G2 | A4 F4 | G4 F2 F2 | D4 z2 G2 | A2 B4 G2 | A4 F2 F2 | G4 D2 D2 | %45
w: ment, ma|_ mi- gnon-|ne, al- lons,|al- lons|gay, gay- e-|ment, al-|lons, al- lons|gay, gay- e-|ment, gay- e-|
 G4 z2 G2- | G2 F2 E4 | F4 z2 F2- | F2 D2 E2 F2 | G4 B2 A2 | G4 D2 F2 | G2 B2 A2 G2 | F4 E4 | %53
w: ment, ma|_ mi- gnon-|ne, al-|* lons, al- lons|gay, gay- e-|ment, vous et|moy, le roy n'en|a poinct|
 F4 G4 | A4 z2 A2 |"^#" G2 F2 G4- | G4 B4 | G2 G2 A4 | z4 A4 | A4 B4 | A2 A2 G2 G2 | %61
w: de si|beau, le|roy n'en a|_ poinct|de si beau,|le|roy n'en|a poinct de si|
"^-natural" F4 F2 F2 | G4 A4- | A2 G2 E4 | F4 z2 F2- | F2 D2 E2 F2 | G4 B2 A2 | G4 D2 ^F2 | %68
w: beau, gay- e-|ment ma|_ mi- gnon-|ne, al-|* lons, al- lons|gay, gay- e-|* vous et|
 G2 G4 ^F2 | z2 G2 A4 | B2 G4 F2 | B2 A2 B3 B | A2 G4 ^F2 | !fermata!G8 |] %74
w: moy, al- lons,|al- lons|gay, al- lons,|al- lons gay- e-|ment, vous et|moy.|
V:3
 z8 | z8 | z8 | d6 d2 | c4 A4 | B4 G2 B2 | A4 G4- | G2 G2 d4 | G4 d2 e2 | f4 d4 | c4 F2 F2 | G8 | %12
w: |||Al- lons,|al- lons|gay, gay- e-|ment, ma|_ mi- gnon-|ne, al- lons,|al- lons|gay, gay- e-|ment,|
 z4 d2 e2 | f4 d4 | c4 B2 B2 | c4 d2 G2 | A8 | d8 | z8 | z8 | z8 | z8 | G4 G2 G2 | d4 d4 | c4 B4 | %25
w: al- lons,|al- lons|gay, gay- e-|ment, ma mi-|gnon-|ne,|||||mon pe- re'a|faict fai-|re'un cha-|
 A8 | z8 | d4 c2 B2 | A4 G4 | d4 _e4 | d8 | z8 | z8 | d6 d2 | c4 A4 | B4 G2 B2 | A4 G4- | %37
w: teau,||d'or et d'ar-|gent sont|les car-|reaux,|||al- lons,|al- lons|gay, gay- e-|ment, ma|
 G2 G2 d4 | G4 d2 e2 | f4 d4 | c4 F2 F2 | G8 | z4 d2 e2 | f4 d4 | c4 B2 B2 | c4 d2 G2 | A8 | d8 | %48
w: _ mi- gnon-|ne, al- lons,|al- lons|gay, gay- e-|ment,|al- lons,|al- lons|gay- gay- e-|ment, ma mi-|gnon-|ne,|
 z8 | z8 | z8 | g4 f2 e2 | d4 A4 | d4 B4 | A8 | z8 | z8 | z4 d4 | c2 B2 A4- | A4 G4 | ^F4 G4 | %61
w: |||le roy n'en|a poinct|de si|beau,|||le|roy n'en a|_ poinct|de si|
 d4 d2 d2 | c4 F4- | F2 G2 A4 | d8 | z8 | z8 | z8 | G4 d4 | g4 f4 | g2 g2 d4 | g2 ^f2 g4 | c4 d4 | %73
w: beau, gay- e-|ment ma|_ mi- gnon-|ne,||||al- lons,|al- lons|gay- e- ment,|gay- e- ment,|vous et|
 !fermata!G8 |] %74
w: moy.|

